X:64
T: ICH KUMM AUS FREMDEN LANDEN
N: E1062B
O: Europa, Mitteleuropa, Deutschland
R: Raetsel -, Brauchtums - Lied, Reigen - Tanz
M: 4/4
L: 1/8
K: F
F | c2c2d2c2 | c3BA2z
A | A2c2c2Ac | B2G2F2z
C | F2G2A2A2 | F2G2A2z
A | A2c2c2A2 | B2G2F2z

@@@ Tune index: 4748
